X: 674
T: Xiuehua ba
L: 1/8
M: 2/4
K: G
d d B d [I:setbarnb 1]| 
c ed2 | 
e d d A | 
G4 | 
d d/ B/ d d/ B/ | 
G BA2 | 
d E G F/ E/ | 
D4 | 
G B A z | 
d E G F/ E/ | 
D4 |]

@@@ Tune index: 9548
